X:379
T:MacDonald's March to the Wars
R:March
M:6/8
%%printtempo 0
Q:180
K:A
(uce)|\
"A"a2A A>AA| c>cc c>BA|(c<e)f (c<e)c|
"Bm"c>BA "E7"B2e| "A"a2A A>AA| c>cc c>BA| (c<e)f (ce)c| "G"(B<=G)B "A"A2:|
uf|\
"A"e>fg ("A7"a2g)| "D"f<af "A"e>dc| "A"e>fg "A7"(a2g)| "D"f>df "E7"e3|
"A"e>fg "A7"(a2e)| "D"f<af "A"e>cA| "A"(c<e)f (ce)c| "G"(B<=G)B A2f|
"A"e>fg "A7"(a2e)| "D"f<af "A"e>dc| "A"e>fg a>aa| "B7"f>ff "E7"(e2g)|
"A"e>fg "A7"(a2e)| "D"f<af "A"e>cA| "A"(c<e)f (ce)c| "G"(B<=G)B A2f|]
